libs/ui/packages/crypto-icons/src/svg/SNGLS.svg

<svg width="24" height="24" viewBox="0 0 24 24" fill="none">
<path d="M12.699 15.5617L12 16.8637L11.301 15.5617C7.0785 15.234 3.76425 12.0855 3.76425 12.0855C3.76425 12.078 6.98475 9.02698 11.121 8.62498L11.6685 7.68748L12 7.13623L12.5625 8.07373L12.879 8.62498C17.0145 9.01948 20.2358 12.0855 20.2358 12.0855C20.2358 12.0855 16.9208 15.234 12.6983 15.5617H12.699ZM4.46325 12.0855C4.45575 12.0855 7.64775 14.2665 10.854 14.7277L9.291 11.8027L9.7155 11.0662L10.1055 11.7952L10.098 11.8027L11.6183 14.7952C11.7405 14.8027 11.8628 14.8027 11.9858 14.8027C12.108 14.8027 12.2235 14.8027 12.3458 14.7952L13.4625 12.5692L14.277 11.0512L14.7015 11.7877L13.1385 14.7202C16.3448 14.2665 19.536 12.138 19.536 12.078C19.536 12.0255 16.4963 9.99448 13.3688 9.47323L13.8443 10.2997L13.4483 11.0955L12.4178 9.36898C12.2787 9.36027 12.1394 9.35527 12 9.35398C11.8628 9.35398 11.7188 9.36148 11.5748 9.36898L10.5225 11.0955L10.134 10.3365L10.6305 9.48073C7.50375 10.0095 4.46325 12.0855 4.46325 12.0855Z" fill="#B30D23"/>
</svg>

<svg width="24" height="24" viewBox="0 0 24 24" fill="none"><path fill="#b30d23" d="M12.699 15.562 12 16.864l-.699-1.302c-4.222-.328-7.537-3.476-7.537-3.476 0-.008 3.22-3.059 7.357-3.461l.547-.938.332-.55.563.937.316.551c4.136.394 7.357 3.46 7.357 3.46s-3.315 3.149-7.538 3.477zm-8.236-3.476c-.007 0 3.185 2.18 6.391 2.642l-1.563-2.925.425-.737.39.73-.008.007 1.52 2.992q.184.01.368.008c.122 0 .237 0 .36-.008l1.117-2.226.814-1.518.425.737-1.563 2.932c3.206-.453 6.397-2.582 6.397-2.642 0-.053-3.04-2.084-6.167-2.605l.475.827-.396.795-1.03-1.726A8 8 0 0 0 12 9.354q-.207.002-.425.015l-1.052 1.726-.389-.759.496-.855c-3.126.528-6.167 2.605-6.167 2.605"/></svg>
